app/images/icons/google.svg

<svg width="48" height="48" viewBox="0 0 48 48" fill="none" xmlns="http://www.w3.org/2000/svg">
<path fill-rule="evenodd" clip-rule="evenodd" d="M30.5838 16.7313C28.8985 15.1557 26.6494 14.2974 24.3223 14.3327C20.0641 14.3327 16.4476 17.1486 15.1581 20.9405C14.4744 22.9276 14.4744 25.0793 15.1581 27.0664H15.1641C16.4595 30.8524 20.0701 33.6684 24.3283 33.6684C26.5264 33.6684 28.4135 33.1173 29.8761 32.1439V32.1399C31.5974 31.0229 32.7729 29.2651 33.1388 27.2781H24.3224V21.117H39.7181C39.91 22.1869 40 23.2804 40 24.368C40 29.2343 38.2258 33.3485 35.1387 36.1351L35.1419 36.1376C32.437 38.5832 28.7245 40 24.3223 40C18.1509 40 12.5071 36.5902 9.73628 31.1875C7.42124 26.6666 7.42124 21.3404 9.73629 16.8195C12.5072 11.4109 18.1508 8.00108 24.3223 8.00108C28.3767 7.95405 32.2931 9.44729 35.2439 12.1633L30.5838 16.7313Z" fill="white"/>
</svg>

<svg width="48" height="48" fill="none" xmlns="http://www.w3.org/2000/svg"><path fill-rule="evenodd" clip-rule="evenodd" d="M30.584 16.731a8.968 8.968 0 00-6.262-2.398c-4.258 0-7.874 2.816-9.164 6.607a9.404 9.404 0 000 6.126h.006c1.295 3.786 4.906 6.602 9.164 6.602 2.198 0 4.085-.55 5.548-1.524v-.004a7.398 7.398 0 003.263-4.862h-8.817v-6.161h15.396c.192 1.07.282 2.163.282 3.251 0 4.866-1.774 8.98-4.861 11.767l.003.003C32.437 38.583 28.724 40 24.322 40c-6.171 0-11.815-3.41-14.586-8.813a15.73 15.73 0 010-14.367C12.507 11.41 18.151 8 24.322 8c4.055-.047 7.971 1.446 10.922 4.162l-4.66 4.568z" fill="#fff"/></svg>
